!!!!SEGMENT: pl-wumfc--n42991_namyslowski-karol--djabelek.krn
!!!cenid: 18xx:4165
!!!COM: Namysłowski, Karol
!!!COM-rismID: pe30020486
!!!CDT: 1856-1925
!!!CNT: Polish
!!!OTL: Djabełek
!!!PDT: 1892
!!!AGN:
!!!SMS-siglum: PL-Wumfc
!!!SMS-shelfmark: N42991
!!!SMS-shelfwork: W
!!!SMS-variant:
!!!SMS-altvar:
!!!NIFC-rismSourceID: 1001166924
!!!NIFC-rismChildID: 1001166924
!!!NIFC-islandoraID: pl-wumfc:5794
!!!URL-pdf-islandora: https://repozytorium.nifc.pl/islandora/object/pl-wumfc%3A5794/datastream/PDF/view
!!!URL-scan: https://polish.musicsources.pl/pl/lokalizacje/galeria/druki-muzyczne/12429/2 @EN{Scan on Polish Music Sources Website} @PL{Skany w portalu Dziedzictwo Muzyki Polskiej w otwartym dostępie}
!!!ONB-nifc:
!!!AIN: 2 piano
!!!key: D
**kern	**kern	**text	**text	**dynam
*part2	*part1	*part1	*part1	*part1
*staff2	*staff1	*staff1	*staff1	*
*I"Piano	*I"Fortepian.	*	*	*
*	*I'pf	*	*	*
*Ipiano	*Ipiano	*	*	*
*ICklav	*ICklav	*	*	*
*clefF4	*clefG2	*	*	*
*k[f#c#]	*k[f#c#]	*	*	*
*D:	*D:	*	*	*
*M3/8	*M3/8	*	*	*
=1	=1	=1	=1	=1
*	*	*	*	*below
4D\ 4A 4d	24f#/LL 24a	.	.	ff
.	24f#/ 24a	.	.	.
.	24f#/JJ 24a	.	.	.
.	8f#/L 8a	.	.	.
8D\ 8G 8d	8g/J 8b	.	.	.
=2	=2	=2	=2	=2
4D\ 4A 4d	24f#/LL 24a	.	.	.
.	24f#/ 24a	.	.	.
.	24f#/JJ 24a	.	.	.
.	8f#/L 8dd	.	.	.
8D\ 8G 8d	8g/J 8b	.	.	.
=3	=3	=3	=3	=3
8D\L	24ff#\LL 24aa	.	.	.
.	24ff#\ 24aa	.	.	.
.	24ff#\JJ 24aa	.	.	.
8F#\ 8A 8d	8dd\L 8ff#	.	.	.
8G\J 8B 8d	8gg\J 8bb	.	.	.
=4	=4	=4	=4	=4
8D\ 8F# 8A 8d	16.ff#\LL 16.aa	.	.	<
.	32dd\K	.	.	.
8r	16ee\	.	.	.
.	16ff#\	.	.	.
8r	16gg\	.	.	.
.	16gg#X\JJ	.	.	[[
=5	=5	=5	=5	=5
*	*^	*	*	*
8CC#/L 8C#	16aa/LL	8ee\L 8gg	.	.	ff
.	8qccc#/	.	.	.	.
.	16bb/JJ	.	.	.	.
8AAA/ 8AA	8aa/L	8ee\ 8gg	.	.	.
.	(8qccc#/	.	.	.	.
8CC#/J 8C#	8bb/J)	8ee\J 8gg	.	.	.
!LO:LB:g=original	!LO:LB:g=original	!LO:LB:g=original	!	!	!
*	*v	*v	*	*	*
=6	=6	=6	=6	=6
8DD/L 8D	16.ff#\LL 16.aa	.	.	.
.	32ee\JJk	.	.	.
8EE/ 8E	8cc#\L 8gg	.	.	.
8FF#/J 8F#	8aM\J 8dd 8ff#	.	.	.
=7	=7	=7	=7	=7
8BB\L	16.dd\LL	.	.	.
.	32ee\JJk	.	.	.
8G#X\ 8d	8ee\L	.	.	.
8E\J	16ee\L	.	.	.
.	16b\JJ	.	.	.
=8	=8	=8	=8	=8
8AA\L	(24dd\LL	.	.	.
.	24cc#\	.	.	.
.	24b\JJ)	.	.	.
8A\ 8c#	8a\L	.	.	.
8A\J 8c# 8e	8a\J 8cc# 8ee 8aa	.	.	.
=9	=9	=9	=9	=9
4D\ 4A 4d	24f#/LL 24a	.	.	.
.	24f#/ 24a	.	.	ff
.	24f#/JJ 24a	.	.	.
.	8f#/L 8a	.	.	.
8D\ 8G 8d	8g/J 8b	.	.	.
=10	=10	=10	=10	=10
4D\ 4A 4d	(>24f#/LL 24a	.	.	.
.	24f#/ 24a	.	.	.
.	24f#/JJ) 24a	.	.	.
.	8f#/L 8dd	.	.	.
8D\ 8B 8d	8g/J 8b	.	.	.
!LO:LB:g=original	!LO:LB:g=original	!	!	!
=11	=11	=11	=11	=11
8D\L	24ff#\LL 24aa	.	.	.
.	24ff#\ 24aa	.	.	.
.	24ff#\JJ 24aa	.	.	.
8F#\ 8A 8d	8dd\L 8ff#	.	.	.
8G\J 8B 8d	8gg\J 8bb	.	.	.
=12	=12	=12	=12	=12
8D\ 8F# 8A 8d	16.ff#\LL 16.aa	.	.	.
.	32dd\K	.	.	.
8r	16ee\	.	.	.
.	16ff#\	.	.	.
8r	16gg\	.	.	.
.	16aa\JJ	.	.	.
=13	=13	=13	=13	=13
8GG\L	16.b\LL 16.bb	.	.	fff
.	32dd\JJk 32ddd	.	.	.
8G\ 8B 8d	8cc#\L 8ccc#	.	.	.
8G\J 8B 8d	8b\J 8bb	.	.	.
=14	=14	=14	=14	=14
8D\L	16.a\LL 16.aa	.	.	.
.	32ff#\K	.	.	.
8F#\ 8A 8d	16dd\	.	.	.
.	16ff#\	.	.	.
8F#\J 8A 8d	16aa\	.	.	.
.	16bb\JJ	.	.	.
=15	=15	=15	=15	=15
8AA\L	(24a\LL	.	.	.
.	24cc#\	.	.	.
.	24ee\JJ)	.	.	.
8G\ 8A 8c#	8aa\L	.	.	.
8G\J 8A 8c#	(24gg\L	.	.	.
.	24ee\	.	.	.
.	24cc#\JJ)	.	.	.
=16	=16	=16	=16	=16
8D\L 8F# 8A 8d	8dd\L	.	.	.
!LO:TX:b:t=Fine	!	!	!	!
8D\J 8F# 8A 8d	8dd\J 8ff# 8aa 8ddd	.	.	.
8r	8r	.	.	.
!LO:LB:g=original	!LO:LB:g=original	!	!	!
=17||	=17||	=17||	=17||	=17||
*k[f#c#g#]	*k[f#c#g#]	*	*	*
!	!LO:TX:t=P:problem:klamra łukowa	!	!	!
*	*Xtuplet	*	*	*
8AA\L	(24ee\LL	.	.	f
.	24aa\	.	.	.
.	24bb\JJ)	.	.	.
8A\ 8c# 8e	16ccc#\LL	.	.	.
.	(16ee\	.	.	.
8A\J 8c# 8e	16aa\	.	.	.
.	16ccc#\JJ)	.	.	.
*	*tuplet	*	*	*
=18	=18	=18	=18	=18
*^	*	*	*	*
4E/	8E\L	16.eee\LL	.	.	.
.	.	32bb\JJk	.	.	.
.	8G#\ 8d	8dd\L 8ddd	.	.	.
8ryy	8A\J 8c#	8cc#\J 8ccc#	.	.	.
*v	*v	*	*	*	*
=19	=19	=19	=19	=19
8AA\L	(24aa\LL	.	.	.
.	24bb\	.	.	.
.	24ccc#\JJ)	.	.	.
8A\ 8c#	8ee\L	.	.	.
8A\J 8c#	24aa\L	.	.	.
.	24ee\	.	.	.
.	24cc#\JJ	.	.	.
=20	=20	=20	=20	=20
8E\L	16.dd\LL	.	.	.
.	32b\JJk	.	.	.
8G#\ 8d	8dd\L	.	.	.
8G#\J 8d	8dd^\J 8ff#	.	.	.
=21	=21	=21	=21	=21
8AA\L	(24ee\LL	.	.	.
.	24aa\	.	.	.
.	24bb\JJ)	.	.	.
8A\ 8c# 8e	8ccc#\L	.	.	.
8A\J 8c# 8e	(24ee\L	.	.	.
.	24aa\	.	.	.
.	24ccc#\JJ)	.	.	.
!LO:LB:g=original	!LO:LB:g=original	!	!	!
=22	=22	=22	=22	=22
8E\L	16.eee\LL	.	.	.
.	32bb\JJk	.	.	.
8G#\ 8d	8dd\L 8ddd	.	.	.
8A\J 8c#	8cc#\J 8ccc#	.	.	.
=23	=23	=23	=23	=23
*^	*	*	*	*
4.D#X/	8D#\L	16.bb\LL	.	.	.
.	.	32ccc#\JJk	.	.	.
.	8F#\ 8A 8B	8aaM\L	.	.	.
.	8F#\J 8A 8B	8ff#\J	.	.	.
=24	=24	=24	=24	=24	=24
4.E/	8E\L	16.aa#X\LL	.	.	.
.	.	32bb\JJk	.	.	.
.	8G#\ 8B 8e	8ggnm\L	.	.	.
.	8G#\J 8B 8e	8ee\J	.	.	.
*v	*v	*	*	*	*
=25	=25	=25	=25	=25
8AA\L	(24ee\LL	.	.	.
.	24aa\	.	.	.
.	24bb\JJ)	.	.	.
8A\ 8c# 8e	8ccc#\L	.	.	.
8A\J 8c# 8e	(24ee\L	.	.	.
.	24aa\	.	.	.
.	24ccc#\JJ)	.	.	.
=26	=26	=26	=26	=26
8E\L	16.eee\LL	.	.	.
.	32bb\JJk	.	.	.
8G#\ 8d	8dd\L 8ddd	.	.	.
8A\J 8c#	8cc#\J 8ccc#	.	.	.
!LO:LB:g=original	!LO:LB:g=original	!	!	!
=27	=27	=27	=27	=27
8AA\L	(24aa\LL	.	.	.
.	24bb\	.	.	.
.	24ccc#\J)	.	.	.
8A\ 8c#	8ee\	.	.	.
8A\J 8c#	(24aa\L	.	.	.
.	24ee\	.	.	.
.	24cc#\JJ)	.	.	.
=28	=28	=28	=28	=28
8E\L	16.dd\LL	.	.	.
.	32b\JJk	.	.	.
8G#\ 8d	8dd\L	.	.	.
8G#\J 8d	8dd^\J 8ff#	.	.	.
=29	=29	=29	=29	=29
8AA\L	(24ee\LL	.	.	.
.	24aa\	.	.	.
.	24bb\JJ)	.	.	.
8A\ 8c# 8e	8ccc#\L	.	.	.
8A\J 8c# 8e	(24ee\L	.	.	.
.	24aa\	.	.	.
.	24ccc#\JJ)	.	.	.
=30	=30	=30	=30	=30
8C#\L	8ee\L 8eee	.	.	.
8E\ 8A	16ccc#\L	.	.	.
.	16aa\J	.	.	.
8D\J 8F# 8A	8ff#\J	.	.	.
=31	=31	=31	=31	=31
8E\ 8A 8c#	16.ee\LL	.	.	.
.	32cc#\K	.	.	.
8r	16dd\	.	.	.
.	16ff#\	.	.	.
8E\ 8B 8d	16ee\	.	.	.
.	16ggn\JJ	.	.	.
=32	=32	=32	=32	=32
16.A\LL 16.c#	16.aa\LL	.	.	.
32A\JJk	32a\JJk	.	.	.
!	!LO:TX:b:t=D.S.al Fine	!	!	!
8A\L	8a/L	.	.	.
8A\J	8a/J	.	.	.
!LO:LB:g=original	!LO:LB:g=original	!	!	!
=33!|:	=33!|:	=33!|:	=33!|:	=33!|:
*k[f#]	*k[f#]	*	*	*
*	*^	*	*	*
!	!LO:TX:a:t=TRIO	!	!	!	!
4GG/ 4D 4G	4d/	4B\	.	.	f
8GG/ 8D 8G	8g/	8B\	.	.	<
*	*v	*v	*	*	*
=34	=34	=34	=34	=34
4G\ 4B 4d	4g/ 4b	.	.	.
8G\ 8c 8e	8g/ 8cc	.	.	.
=35	=35	=35	=35	=35
8G\L 8B 8d	16g/LL 16b	.	.	.
!	!LO:TX:a:t=Świstać...........	!	!	!
.	16g/JJ	.	.	.
8C\	8e/L 8a	.	.	.
8D\J	8c/J 8d 8f#	.	.	[[
=36	=36	=36	=36	=36
8G/L	8B/L 8d 8g	.	.	.
8GG/J 8G	8g/J 8b 8dd 8gg	.	.	ff
8r	8r	.	.	.
!LO:LB:g=original	!LO:LB:g=original	!	!	!
=37||	=37||	=37||	=37||	=37||
*^	*	*	*	*
!	!	!LO:TX:a:t=Śpiew	!	!	!
4.G/	8G\L	16.dd\LL	Po	W ka -	p p
.	.	32ee\JJk	ol-	-li-	.
.	8B\ 8d	8dd\L	-szo-	-no-	.
.	8c\J 8d	8cc\J	-wym	-wym	.
=38	=38	=38	=38	=38	=38
4.G/	8G\L	4b/	le-	le-	.
.	8c\ 8d	.	.	.	.
.	8c\J 8d	8a/	-sie,	-sie,	.
=39	=39	=39	=39	=39	=39
4.G/	8G\L	16.g/LL	dja-	dja-	.
.	.	32f#/JJk	-beł	-beł	.
.	8B\ 8d	8g/L	cłop-	ba-	.
.	8E\J 8G 8A 8c	8a/J	-ca	-be	.
=40	=40	=40	=40	=40	=40
4.D/	8D\L	4f#/	nie-	nie-	.
.	8F#\ 8A	.	.	.	.
.	8F#\J 8A	8d/	-sie,	-sie,	.
!	!LO:LB:g=original	!LO:LB:g=original	!	!	!
=41	=41	=41	=41	=41	=41
4.D/	8D\L	16.f#/LL	Wiatr	Jak	.
.	.	32g/JJk	lis-	da	.
.	8F#\ 8A	8a/L	-cia-	wór	.
.	8C\J 8F# 8A	8a/J	-mi	pie-	.
=42	=42	=42	=42	=42	=42
4.BB/	8BB\L	4b\	chłos-	-nię-	.
.	8D\ 8G	.	.	.	.
.	8AA\J 8D 8F#	8ccM\	-tał,	-dzy,	.
*v	*v	*	*	*	*
=43	=43	=43	=43	=43
8GG\L 8D 8G	16.b/LL	Z chłop-	O-	.
.	32g/JJk	-ca	-że-	.
8r	8f#/L	dja-	-ni	.
8D\J 8c	8d/J 8f# 8a	-beł	się	.
=44	=44	=44	=44	=44
8G\L	4g/	zo-	prę-	.
8B\ 8d	.	.	.	.
8B\J 8d	8g/	-stał.	-dzej,	.
!LO:LB:g=original	!LO:LB:g=original	!	!	!
=45||	=45||	=45||	=45||	=45||
*	*Xtuplet	*	*	*
8GG\L	24dd'\LL	.	.	fff
.	24gg'\	.	.	.
.	24aa'\JJ	.	.	.
8G\ 8B 8d	16bb\	.	.	.
.	16r	.	.	.
8G\J 8B 8d	8dd^\ 8gg 8bb	.	.	.
=46	=46	=46	=46	=46
.	(8qccc/	.	.	.
*^	*	*	*	*
4D/	8D\L	16.bb\LL)	.	.	.
.	.	32aa\JJk	.	.	.
.	8F#\ 8A 8d	8ccc\L	.	.	.
8ryy	8F#\J 8A 8d	8ff#\J 8ccc	.	.	.
*v	*v	*	*	*	*
=47	=47	=47	=47	=47
8D\L	24dd'\LL	.	.	.
.	24ff#'\	.	.	.
.	24aa'\JJ	.	.	.
8F#\ 8A 8d	16ccc\	.	.	.
.	16r	.	.	.
8F#\J 8A 8d	8ff#^\ 8ccc	.	.	.
=48	=48	=48	=48	=48
8GG\L	16.gg\LL 16.bb	.	.	.
.	32aa\JJk 32ccc	.	.	.
8G\ 8B 8d	8bb\L 8ddd	.	.	.
8G\J 8B 8d	8bb\J 8ddd	.	.	.
*	*tuplet	*	*	*
!LO:LB:g=original	!LO:LB:g=original	!	!	!
=49	=49	=49	=49	=49
8GG\L	24dd'\LL	.	.	.
.	24gg'\	.	.	.
.	24aa'\JJ	.	.	.
8G\ 8B 8d	8bb\L	.	.	.
8G\J 8B 8d	8gg\J	.	.	.
=50	=50	=50	=50	=50
16C/	16ee\	.	.	.
16r	16r	.	.	.
4C^\ 4E 4G 4c	4ee^\ 4eee	.	.	.
=51	=51	=51	=51	=51
8D\L	(24ccc\LL	.	.	.
.	24bb\	.	.	.
.	24aa\JJ)	.	.	.
8E\ 8c	8ee\L	.	.	.
8A\J 8c	8cc\J 8dd 8ff#	.	.	.
=52	=52	=52	=52	=52
8G\L 8B	8b\L 8dd 8gg	.	.	.
8GG\J 8G	8B\J 8d 8g	.	.	.
!LO:TX:b:t=Mazur D.C	!	!	!	!
8r	8r	.	.	.
=:|!	=:|!	=:|!	=:|!	=:|!
*-	*-	*-	*-	*-
!!!RDF**kern: > = above
!!!RDF**kern: < = below
!!!system-decoration: [(s1,s2)]
!!!ENC: Andrzej Gręziak
!!!END: 2022-09-07
!!!ENC: Julita Ruszuk
!!!END: 2022-09-22
!!!YEC: Copyright 2022 Narodowy Instytut Fryderyka Chopina (https://polishscores.org)
!!!YEM: License CC-BY-4.0 (https://creativecommons.org/licenses/by/4.0)
